!!!COM: Ludwig van Beethoven
!!!CNT: Deutsch
!!!TXO: Deutsch
!!!OTL: "Mit einem gemalten Band"
!!!LYR: Goethe, Johann Wolfgang
!!!OPS: Op. 83
!!!ONM: No. 3
!!!ENC: Amanda Harris
!!!YOR: Sa2mtliche Lieder, Band 2
!!!YOR: G. Henle Verlag
!!!ODT: 1810/
!!NB: Vocal melody and text encoded.
**kern	**silbe
*clefG2	*
*k[f-]	*
*M2/2	*
*MM[leichtlich und mit grazie vergetragen]	*
=1	=1
2r	.
{4a	{Klei-
8b	-ne
8cc	|
=2	=2
8cc	Blu-
8b	|
8a	-men,
8g	|
4f	klei-
4g	-ne
=3	=3
4a	Bla2t-
4f	-ter
4b-	streu-
4dd	-en
=4	=4
4.cc	mir
8b-	mit
8a	leich-
8ff	|
8cc	-ter
8a	|
=5	=5
4a	Hand
4g	|
4.g	gu-
8g	-te
=6	=6
4.a	jun-
8a	-ge
8b-	Fru2h-
8cc	|
8dd	-lings-
8ee	|
=7	=7
4ff	-go2t-
4cc	-ter
8ff	ta2n-
8ee	|
8dd	-delnd
8cc	|
=8	=8
8b-	um
8a	|
8g	ein
8f	|
4e	luf-
4g	-tig
=9	=9
4f}	Band.}
4r	.
2r	.
=11	=11
4r	.
{8cc	{Ze-
8cc	-phir,
8cc	nimm's
8cc	auf
8cc	dei-
8ff	-ne
=12	=12
8ff	Flu2-
8ee	-gel,
4r	.
2r	.
=13	=13
4r	.
8cc	schling's
8cc	um
8cc	mei-
8cc	-ner
12cc	Lieb-
12ff	|
12ff	-sten
=14	=14
8ff	Kleid;
8ee}	|}
4r	.
2r	.
=15	=15
{4.cc	{und
8cc	so
8dd	tritt
8dd	sie
8dd	vor
8dd	den
=16	=16
8ee-	Spie-
8ee-	-gel
8dd	all
8b-	in
8g	ih-
8b-	-rer
8a	Mun-
8cc	-ter-
=17	=17
4b	-keit,
2ee-	sieht
4dd	mit
=18	=18
4cc	Ro-
4b-	-sen
4.a	sich
8cc	um-
=19	=19
8cc	-ge-
8b-	|
8b-	-ben,
8ff	|
8ff	selbst
8ee-	|
8ee-	wie
8dd	|
=20	=20
8dd	ei-
8cc	|
8cc	-ne
8b-	|
12a	Ro-
12ee-	|
12dd	|
12ee-	|
12cc	|
12a	-se
=21	=21
4b-	jung.
8b-	Ei-
8a	-nen
8g	Blick,
8g	ge-
8ee-	-lieb-
8cc	-tes
=22	=22
8b-	Le-
8a	-ben,
8a	und
8bn	ich
8cc	bin
8dd	be-
8ee-	-lohnt
8ee-	ge-
=23	=23
4ee-}	-nung.}
4r	.
{4.ee-	{Ei-
8ff	-nen
=24	=24
4dd	Blick,
8r	.
8dd	ge-
4.ee-	-lieb-
8ff	-tes
=25	=25
4dd	Le-
4dd	-ben,
8dd	und
8ee-	|
8een	ich
8ff	|
=26	=26
4ff	bin
8b-	|
8b-	be-
4dd	-lohnt
4cc	ge-
=27	=27
4b-}	-nung.}
4r	.
{8b-	{Fu2h-
8b-	-le,
4r	.
=28	=28
2r	.
4a	fu2h-
8b-	-le,
8cc	|
=29	=29
8cc	was
8b-	|
8a	dies
8g	|
4f	Herz
4g	emp-
=30	=30
4a	-fin-
4f	-det,
4b-	rei-
4dd	-che
=31	=31
4.cc	frei
8b-	mir
8a	dei-
8ff	|
8cc	-ne
8a	|
=32	=32
4a	Hand,
8g}	|}
8r	.
{4.g	{und
8g	das
=33	=33
4.a	Band,
8a	das
8b-	uns
8cc	|
8dd	ver-
8ee	|
=34	=34
4ff	-bin-
8cc	det,
8r	.
8ff	sei
8ee	|
8dd	kein
8cc	|
=35	=35
8b-	schwa-
8a	|
8g	-ches
8f	|
4e	Ro-
4g	-sen-
=36	=36
4f}	-band,}
8r	.
{8cc	{ja,
8ff	sei
8ee	|
8dd	kein
8cc	|
=37	=37
8b-	schwa-
8a	|
8g	-ches
8f	|
4e	Ro-
4g	-sen
=38	=38
4f}	-band!}
{8a	{Fu2h-
8f	-le,
8b-	was
8g	dies
8f	Herz
8e	emp-
=39	=39
8g	-fin-
8f	-det,
8a	rei-
8f	-che
8b-	frei
8g	mir
8f	dei-
8e	-ne
=40	=40
8g	Hand,
8f	|
8a	und
8a	das
8b-	Band,
8cc	das
8dd	uns
8ee	ver-
=41	=41
8.ff	-bin-
16ee	|
4ee}	-det,}
{8ff	{sei
8r	.
8cc#	kein
8r	.
=42	=42
8dd	schwa-
8r	.
8g	-ches
8r	.
8b-	Ro-
8r	.
8e	-sen-
8r	.
=43	=43
4f	band,
4r	.
8ff	sei
8r	.
8cc#	kein
8r	.
=44	=44
8dd	schwa-
8r	.
8g	-ches
8r	.
8b-	Ro-
8r	.
8e	-sen-
8r	.
=45	=45
4f	-band,
4r	.
4b-	kein
4r	.
=46	=46
4a	schwa-
8r	.
8f	-ches
4e	Ro-
4g	-sen-
=47	=47
4f}	-band!}
4r	.
2r	.
*-	*-
